markup/sourceimages/icon5.svg

<svg xmlns="http://www.w3.org/2000/svg" width="1211" height="1245"><path fill-rule="evenodd" fill="#F1F7FC" d="M193.301 753.002c8.397-15.468-13.426-13.753-13.426-13.753C87.532 826.903 23.74 787.387 3.593 756.45c-20.146-30.937 50.367-103.122 73.865-116.882 23.507-13.753 10.074-27.489 10.074-27.489-164.525-458.893 419.723-417.645 419.723-417.645C654.993-27.278 824.562 3.658 873.244.21c48.69-3.44 60.439 32.653 26.867 41.612-33.58 8.967-104.093 83.851-122.563 133.696-18.462 49.853 36.94 99.682 226.648 225.161 189.715 125.454 199.788 235.448 206.501 318.556 6.721 83.101-94.012 198.762-112.482 215.947-18.47 17.2-13.434 32.669-13.434 32.669 23.507 39.516 52.051 123.746 23.507 209.668-28.543 85.938-78.909 65.313-78.909 65.313 18.47-77.341-30.22-106.562-55.403-151.235-25.183-44.697 35.256-87.653 35.256-87.653-72.189 54.984-162.848 8.579-216.574-25.781-53.719-34.385-63.792 12.02-63.792 12.02-21.831-135.767 130.952-97.966 130.952-97.966s214.89 79.058 208.177-72.186c-6.712-151.234-248.47-190.776-320.667-175.307-72.189 15.468 30.22 183.912 31.904 209.692 1.676 25.781-68.836-10.312-85.622-36.092-16.794-25.781-114.166-130.635-186.355-151.26-72.197-20.625-253.515 134.059-287.087 151.26-33.58 17.175-45.33 17.175-58.763 0-13.434-17.201 23.507-49.854 31.896-65.322z"/></svg>

<svg 
 xmlns="http://www.w3.org/2000/svg"
 xmlns:xlink="http://www.w3.org/1999/xlink"
 width="1211px" height="1245px">
<path fill-rule="evenodd"  fill="rgb(241, 247, 252)"
 d="M193.301,753.002 C201.698,737.534 179.875,739.249 179.875,739.249 C87.532,826.903 23.740,787.387 3.593,756.450 C-16.553,725.513 53.960,653.328 77.458,639.568 C100.965,625.815 87.532,612.079 87.532,612.079 C-76.993,153.186 507.255,194.434 507.255,194.434 C654.993,-27.278 824.562,3.658 873.244,0.210 C921.934,-3.230 933.683,32.863 900.111,41.822 C866.531,50.789 796.018,125.673 777.548,175.518 C759.086,225.371 814.488,275.200 1004.196,400.679 C1193.911,526.133 1203.984,636.127 1210.697,719.235 C1217.418,802.336 1116.685,917.997 1098.215,935.182 C1079.745,952.382 1084.781,967.851 1084.781,967.851 C1108.288,1007.367 1136.832,1091.597 1108.288,1177.519 C1079.745,1263.457 1029.379,1242.832 1029.379,1242.832 C1047.849,1165.491 999.159,1136.270 973.976,1091.597 C948.793,1046.900 1009.232,1003.944 1009.232,1003.944 C937.043,1058.928 846.384,1012.523 792.658,978.163 C738.939,943.778 728.866,990.183 728.866,990.183 C707.035,854.416 859.818,892.217 859.818,892.217 C859.818,892.217 1074.708,971.275 1067.995,820.031 C1061.283,668.797 819.525,629.255 747.328,644.724 C675.139,660.192 777.548,828.636 779.232,854.416 C780.908,880.197 710.396,844.104 693.610,818.324 C676.816,792.543 579.444,687.689 507.255,667.064 C435.058,646.439 253.740,801.123 220.168,818.324 C186.588,835.499 174.838,835.499 161.405,818.324 C147.971,801.123 184.912,768.470 193.301,753.002 Z"/>
</svg>
